src/lib/packages/icons/src/assets/line/home-dash-dollar.svg

<svg width="24" height="24" viewBox="0 0 24 24" fill="none" xmlns="http://www.w3.org/2000/svg">
<path d="M20.747 8.48299L14.065 2.98994C12.868 2.00694 11.131 2.00594 9.93401 2.98994L3.25201 8.48299C2.48201 9.11599 2.11502 10.1189 2.29302 11.0999L3.7481 19.083C4.0301 20.628 5.3751 21.75 6.9461 21.75H17.0511C18.6221 21.75 19.9671 20.628 20.2491 19.083L21.704 11.0999C21.884 10.1189 21.517 9.11599 20.747 8.48299ZM20.2291 10.831L18.7741 18.8139C18.6231 19.6459 17.8981 20.25 17.0521 20.25H6.94707C6.10107 20.25 5.37703 19.6459 5.22503 18.8139L3.77007 10.832C3.68807 10.386 3.85511 9.92992 4.20611 9.64192L10.888 4.149C11.21 3.884 11.6051 3.75191 12.0001 3.75191C12.3951 3.75191 12.7901 3.88498 13.1121 4.14998L19.794 9.6429C20.144 9.9299 20.3111 10.385 20.2291 10.831ZM14.5001 14.613C14.5001 15.21 14.27 15.773 13.85 16.197C13.545 16.508 13.1641 16.715 12.7501 16.806V17C12.7501 17.414 12.4141 17.75 12.0001 17.75C11.5861 17.75 11.2501 17.414 11.2501 17V16.805C10.3351 16.603 9.62209 15.8369 9.51409 14.8599C9.46809 14.4479 9.76505 14.0769 10.1771 14.0319C10.5781 13.9879 10.9581 14.2829 11.0041 14.6949C11.0461 15.0749 11.356 15.3609 11.725 15.3609H12.2761C12.4651 15.3609 12.645 15.284 12.782 15.145C12.924 15.001 13.001 14.813 13.001 14.613C13.001 14.269 12.773 13.9699 12.449 13.8859L11.1821 13.567C10.6991 13.442 10.267 13.1569 9.96502 12.7619C9.66602 12.3789 9.50005 11.8879 9.50005 11.3869C9.50005 10.3119 10.2511 9.41395 11.2501 9.19295V8.99995C11.2501 8.58595 11.5861 8.24995 12.0001 8.24995C12.4141 8.24995 12.7501 8.58595 12.7501 8.99995V9.1949C13.6651 9.3969 14.378 10.163 14.486 11.14C14.532 11.552 14.2351 11.923 13.8231 11.968C13.4231 12.01 13.042 11.717 12.996 11.305C12.954 10.925 12.6441 10.639 12.2751 10.639H11.7241C11.3251 10.639 10.9991 10.9739 10.9991 11.3869C10.9991 11.5569 11.0531 11.7199 11.1511 11.8459C11.2551 11.9819 11.3921 12.073 11.5501 12.114L12.8171 12.4329C13.8101 12.6879 14.5001 13.584 14.5001 14.613Z" fill="currentColor"/>
</svg>

<svg xmlns="http://www.w3.org/2000/svg" width="24" height="24" fill="none"><path fill="currentColor" d="M20.747 8.483 14.065 2.99a3.26 3.26 0 0 0-4.131 0L3.252 8.483a2.753 2.753 0 0 0-.959 2.617l1.455 7.983a3.25 3.25 0 0 0 3.198 2.667h10.105a3.25 3.25 0 0 0 3.198-2.667l1.455-7.983a2.748 2.748 0 0 0-.957-2.617Zm-.518 2.348-1.455 7.983a1.75 1.75 0 0 1-1.722 1.436H6.947a1.75 1.75 0 0 1-1.722-1.436L3.77 10.832a1.248 1.248 0 0 1 .436-1.19l6.682-5.493A1.747 1.747 0 0 1 12 3.752c.395 0 .79.133 1.112.398l6.682 5.493c.35.287.517.742.435 1.188ZM14.5 14.613c0 .597-.23 1.16-.65 1.584a2.194 2.194 0 0 1-1.1.609V17a.75.75 0 0 1-1.5 0v-.195a2.236 2.236 0 0 1-1.736-1.945.75.75 0 1 1 1.49-.165c.042.38.352.666.721.666h.551a.708.708 0 0 0 .506-.216.751.751 0 0 0 .219-.532.747.747 0 0 0-.552-.727l-1.267-.319a2.245 2.245 0 0 1-1.682-2.18c0-1.075.751-1.973 1.75-2.194V9a.75.75 0 0 1 1.5 0v.195a2.236 2.236 0 0 1 1.736 1.945.749.749 0 0 1-.663.828.759.759 0 0 1-.827-.663.735.735 0 0 0-.72-.666h-.552a.738.738 0 0 0-.725.748.75.75 0 0 0 .551.727l1.267.319a2.244 2.244 0 0 1 1.683 2.18Z"/></svg>
